X:1
T:James Gibb editions
T:Gloria, laus et honor - Tye
T:#
%%score [ 1 2 3 4 ]
L:1/8
Q:1/4=180
M:none
K:C
V:1 treble nm="Soprano" snm="S"
V:2 treble nm="Alto" snm="A"
V:3 treble-8 nm="Tenor" snm="T"
V:4 bass nm="Bass" snm="B"
V:1
"^Gloria, laus et honor""^Christopher Tye\n(c.1500-1573)" (E8 B8 | c12) B4 | (A8 G8) | (A8 c8 | %4
w: Glo\- *|* ri\-||a, *|
 B8 A4 E4) | G4 G4 d8 | (c8 B8- | B4) A4 G8 | z8 z4 G4 | A4 c4 B4 d4- | d2 (c2 B2 A2 G8- | G8 E8) | %12
w: |laus et ho-|nor *|* ti- bi|sit,|Rex Chri- ste Re\-|* dem\- * * *||
 B8 z8 | z4 ^F4 B8 | A4 A4 (d8 | c12 B2 A2 | G4 A4 F8) | E8 z8 | z4 G4 G4 G4 | c6 c2 B4 (E4 | %20
w: ptor,|Rex Chri-|ste Re- dem\-|||ptor:|Cu- i pu-|e- ri- le de\-|
 A4 G4 E8) | A4 (B6 c2 B4 | c12 B4- | B2 c2 A4) (G6 A2 | F2 E2 C2 D2 E8- | E16 | E8 z4) E4 | %27
w: |cus prom\- * *||* * * psit. *|||* Ho-|
 B8 G4 (d4 | c4 B6 A2 A4 | A2 B2 G4 A4 ^F4) | !fermata!E16 | A8 G8 | A8 (A8 | c8) (c8 | B8 (A8- | %35
w: san- na pi\-|||um.|Is- ra-|el es|* tu|* Rex,|
 G8) G8 | A8) (c8 | B8) (c8 | d8 c8- | c8 B8 | A16 | G8 A8 | A8 A8 | G8 A8 | (A16 | c16 | c8 B8 | %47
w: * Da\-|* vi\-|* dis||* in-|cli-|ta pro-|les: No-|mi- ne|in||Do- mi-|
 A8 G8) | G8 A8) | (c8 B8) | (c8 d8) | (c8 B8) | A8 | (G8 A8) | A16- | !fermata!A16 || %56
w: ni, *|Rex *|be\- *|ne\- *|di\- *|cte,|ve\- *|nis.||
 A4 G4 A4 (A4 | c4 (c4 B4) A4 | G4) (G4 A4) (c4 | B4) (c4 d4) (c4 | B4) A4 G4 A4 | A4 A4 G4 A4 | %62
w: Plebs He- brae- a|* ti\- * bi|* cum * pal\-|* mis * ob\-|* vi- a ve-|nit: Cum pre- ce,|
 A4 (A4 c4) (c4 | B4) (A4 G4) (G4 | A4) (c4 B4)[Q:1/4=177] (c4 | %65
w: vo- to * hy\-|* mnis, * ad\-|* su\- * mus|
[Q:1/4=173] d4)[Q:1/4=170] (c4[Q:1/4=166] B4)[Q:1/4=162] A4 || %66
w: * ec\- * ce|
[M:3/2][Q:1/4=158] (G4[Q:1/4=155] A4)[Q:1/4=151] A4- |[Q:1/4=150] !fermata!A16 |] %68
w: ti\- * bi.||
V:2
 z16 | z16 | (A,8 E8 | F6) F2 E8 | G4 G4 c8 | B8 z4 A4- | A4 G4 G8 | z4 (d4 c4 B4- | B4 A6 G2 G4 | %9
w: ||Glo\- *|* ri- a,|laus et ho-|nor ti\-|* bi sit,|ti\- * *||
 F4 E4) G4 G4 | B4 d4 c4 B4- | B2 c2 B4 c4 (A4 | G4 F8 E4 | F4 D4 G4 =F4- | F2 G2 F4 G6 D2 | %15
w: * * bi sit,|Rex Chri- ste Re\-|* * * * dem\-||||
 F4 E4) E8- | E4 (A,4 A8- | A8 E8) | z16 | z4 A4 G4 G4 | (d4 B4) (c3 B A2 G2 | F8 G8- | G8) G8 | %23
w: * ptor: Cu\-|* i *|||pu- e- ri-|le * de\- * * *||* cus|
 E8 E8 | z4 E4 A8 | G8 (c4 A4 | B8) E4 C4 | (D4 E8 D2 G2 | E2 F2 G4 A4) E4- | E4 (E6 D2 D4) | %30
w: prom- psit.|Ho- san-|na pi\- *|* um, Ho-|san\- * * *|* * * * na|* pi\- * *|
 !fermata!^C16 | A,4 !courtesy!=C4 B,8 | (A,2 C2 D2 E2 F2 ED CB, A,2 | E2 A,B, CDEF EDCD EFEF | %34
w: um.|Is- ra- el|es * * * * * * * * *||
 GABA GFED AGFE DC F2 | E6 DC B,6 G2 | F4 D4 A4 G4 | G8 G6 A2 | B4) (B4 E4) A4 | G4 C4 (D8 | %40
w: ||||* tu * Rex,|Da- vi- dis|
 F8) E4 (c4- | c2 B2 G8 F2 E2 | F8) E4 A,4 | C8 C4 C4 | F12 F4 | E8 A8- | A8 (^F4 G4 | %47
w: * in- cli\-||* ta pro-|les: No- mi-|ne qui|in Do\-|* mi~\- *|
 E4 D2 C2 B,8- | B,4 E4 A,4) A4 | G16 | C4 E4 D8 | A,4 (E4 G4 F2 E2 | E2 F2 D2 A,2) | B,8 z4 (C4 | %54
w: |* * * ni,|Rex|be- ne- di-|cte, ve\- * * *||nis, ve\-|
 D4 ^F4 E8) |!f! !fermata!^F16 || E4 E4 C4 F4 | G12 E4- | E4 E4 (C4 G4) | G8 A4 G4 | G4 E4 E4 C4 | %61
w: |nis.|Plebs He- brae- a|ti- bi|* cum pal\- *|mis ob- vi\-|* a ve- nit:|
 F4 (D4 E4) ^C4 | =C4 D4 G8- | G4 E8 z4 | F3 F E2 G2- G4 E4 | (A4 G8 F4 ||[M:3/2] E8 D4 | %67
w: Cum pre\- * ce,|vo- to hy\-|* mnis,|ad- su- mus ec\- * ce|ti\- * *||
 !fermata!^C16) |] %68
w: bi.|
V:3
 z16 | z16 | z16 | z16 | z8 (A8 | e8 f8) | (e8 d8) | (d8 e8) | d16 | c8 d8 | (d8 e8 | d8 c8 | %12
w: ||||Glo\-||ri\- *|a, *|laus|et ho-|nor *|* ti-|
 B8 A8 | d8 d8- | d8 G8 | A8 (c8- | c8 d8) | c8 c8 | e8) e8 | e8 e8 | (d8 c8 | d8) (d8 | e8 d8) | %23
w: bi sit,|Rex Chri\-|* ste|Re- dem\-||ptor: Cu\-|* i|pu- e-|ri\- *|* le||
 (c8 B8) | (A8 c8) | c8 (c8 | B8 A8) | G8 B8 | c4 (d4 A4 c4 | B8 A8- | !fermata!A16 | z16 | z16 | %33
w: de\- *|cus *|prom- psit.||Ho- san-|na pi\- * *|* um.||||
 z16 | z16 | z16 | z8 e6 e2 | d8 c8 | g6 g2 c8 | z16 | z8 A4 A4 | e6 e2 d8- | d8 c4 f4 | e8) z8 | %44
w: |||Da- vi-|dis et|in- cli- ta||pro- les:|No- mi- ne|||
 z16 | c4 c4 f8- | f4 f4 d8 | z16 | z4 G4 c4 d4 | (e16 | e8 f8) | e8 z8 | z4 (A4 | e4 g4 f4 e4- | %54
w: |qui in Do\-|* mi- ni,||Rex be- ne-|di\-||cte,|ve\-||
 e2 d2 d8 ^c4 | !fermata!d16) || c4 B4 A4 d4 | (e8 d4 c4 | B4) B4 (A4 e4 | d4 e4) f4 e4 | %60
w: |nis.|Plebs He- brae- a|ti\- * *|* bi cum *|* * pal- mis|
 (d4 c4) (B4 A4) | d4 A4 B4 F4 | A4 A4 e4 e4 | (d4 c4) B8 | z4 e3 e d4 c2 c2 | (f4 e4 d8 || %66
w: ob\- * vi\- *|a ve- nit: Cum|pre- ce, vo- to,|hy\- * mnis,|ad- su- mus ec- ce|ti\- * *|
[M:3/2] c4 A4 F4 | !fermata!E16) |] %68
w: |bi.|
V:4
 z16 | (A,,8 E,8 | F,6) F,2 E,8 | D,4 D,4 A,8 | E,8 (F,4 A,4 | G,4 E,8 D,4 | %6
w: |Glo\- *|* ri- a,|laus et ho-|nor ti\- *||
 A,,4 C,4 G,,3 A,, B,,2 C,2 | D,2 E,2 F,4 E,8 | G,4 ^F,4 B,8) | A,8 G,8- | G,8 E,8 | G,8 A,4 A,4 | %12
w: |||bi sit,|* Rex|Chri- ste Re-|
 (D12 C4 | B,12 A,2 G,2 | F,2 E,2 D,2 C,2 B,,2 A,,2 B,,4 | A,,16 | E,4 F,4 D,8 | A,4 A,4 A,4 A,4 | %18
w: dem\- *|||||ptor: Cu- i pu-|
 C6 C2 C6 B,2 | A,8 E,8 | F,4 G,4 A,8) | D,8 G,8 | (E,8 G,8) | (C,8 E,8 | A,,16) | z4 E,4 A,8 | %26
w: e- ri- le *|||de- cus|prom\- *|psit. *||Ho- san-|
 G,8 (C8 | B,4 E,6 F,2 G,4 | A,4 G,4 F,4 A,4 | E,6 D,2 C,4 D,4) | !fermata!A,,16 | z16 | z16 | %33
w: na pi\-||||um.|||
 z16 | z16 | z8 E,6 E,2 | D,8 C,8 | G,6 G,2 C,8 | z8 A,,4 A,,4 | E,6 E,2 (D,8- | D,8 C,4 F,4 | %41
w: ||Da- vi-|dis et|in- cli- ta|pro- les:|No- mi- ne||
 E,8) z8 | z16 | C,4 C,4 F,8- | F,4 F,4 D,8 | z16 | z8 z4 G,,4 | C,4 D,4 (E,8- | E,8 F,8) | %49
w: ||qui in Do\-|* mi- ni,||Rex|be- ne- di\-||
 E,8 z8 | z16 | z4 A,,4 E,4 G,4 | F,8 | E,8 (D,4 C,4 | F,4 D,4 A,8) | !fermata!D,16"^5" || %56
w: cte,||Rex be- ne-|di-|cte, ve\- *||nis.|
 A,4 E,4 (F,4 D,4) | C,4 C,4 G,4 (C,4 | E,4) E,4 (F,4 E,4 | G,4) (E,4 D,4) E,4 | %60
w: Plebs He- brae\- *|a ti\- * bi|* cum pal\- *|* mis * ob-|
 (G,4 A,4) E,4 F,4 |"A" D,4 F,4 E,4 A,,4 | F,8 E,4 (C,4 | G,4) (C,4 E,4) E,3 E, | %64
w: vi\- * a ve-|nit: Cum pre- ce,|vo- to, hy\-|* mnis, * ad- su-|
 D,4 C,2 C,2 (G,4 A,4 | D,4 E,4 G,4 D,4 ||[M:3/2] E,4 C,4 D,4 | !fermata!A,,16) |] %68
w: mus ec- ce ti\- *|||bi.|

